src/WeatherTwentyOne/Resources/Images/fluent_weather_thunderstorm_20_filled.svg

<svg width="40" height="40" viewBox="0 0 40 40" fill="none" xmlns="http://www.w3.org/2000/svg">
<path d="M23.2241 24.26C23.4211 24.4375 23.5396 24.6859 23.5534 24.9507C23.5673 25.2155 23.4755 25.4749 23.2981 25.672L21.2441 28.006H25.0001C25.1879 28.0066 25.3718 28.06 25.5306 28.1602C25.6895 28.2604 25.8169 28.4033 25.8983 28.5726C25.9797 28.7419 26.0118 28.9306 25.9909 29.1173C25.97 29.3039 25.8969 29.4809 25.7801 29.628L20.8801 35.628C20.7149 35.8357 20.4739 35.9692 20.2102 35.9992C19.9466 36.0292 19.6818 35.9532 19.4741 35.788C19.2664 35.6228 19.1329 35.3818 19.1029 35.1181C19.0729 34.8545 19.1489 34.5897 19.3141 34.382L22.9241 30.006H19.0001C18.8069 30.006 18.6179 29.95 18.4558 29.8448C18.2938 29.7396 18.1657 29.5898 18.087 29.4134C18.0083 29.2369 17.9824 29.0415 18.0124 28.8507C18.0424 28.6598 18.127 28.4818 18.2561 28.338L21.8101 24.334C21.898 24.2362 22.0043 24.1566 22.123 24.0999C22.2417 24.0432 22.3704 24.0105 22.5017 24.0036C22.6331 23.9968 22.7645 24.0159 22.8885 24.0599C23.0124 24.1039 23.1265 24.1719 23.2241 24.26V24.26ZM22.0001 12C26.9301 12 29.7261 15.148 30.1321 18.948H30.2561C33.4281 18.948 36.0001 21.422 36.0001 24.474C36.0001 27.526 33.4281 30 30.2561 30H27.8361C28.4381 28.308 27.3741 26.374 25.5401 26.052L25.2861 26.018C25.4624 25.3666 25.4139 24.6748 25.1484 24.0543C24.883 23.4339 24.4161 22.9211 23.8232 22.5987C23.2303 22.2764 22.5461 22.1634 21.881 22.2779C21.216 22.3924 20.609 22.7279 20.1581 23.23L16.7701 27C16.4056 27.3975 16.1569 27.8873 16.0511 28.4162C15.9454 28.9451 15.9865 29.4928 16.1701 30H13.7441C10.5721 30 8.00009 27.526 8.00009 24.474C8.00009 21.422 10.5721 18.948 13.7441 18.948H13.8681C14.2781 15.122 17.0701 12 22.0001 12ZM16.7841 6C19.6961 6 22.2361 7.656 23.4901 10.09C22.9957 10.0294 22.4981 9.99933 22.0001 10C17.2201 10 13.7361 12.614 12.4921 16.572L12.3681 17L12.2761 17.374L11.9461 17.434C10.7383 17.68 9.61019 18.2211 8.66237 19.0091C7.71456 19.7971 6.97652 20.8074 6.51409 21.95C5.56131 21.3695 4.8185 20.5003 4.39364 19.4686C3.96878 18.437 3.88402 17.2968 4.15168 16.2137C4.41933 15.1306 5.02545 14.161 5.88193 13.4461C6.7384 12.7311 7.8006 12.3079 8.91409 12.238L9.35809 12.228C9.6665 10.4827 10.5799 8.90174 11.9379 7.76282C13.2959 6.62389 15.0117 5.99976 16.7841 6V6Z" fill="url(#paint0_linear)"/>
<defs>
<linearGradient id="paint0_linear" x1="9.46325" y1="11.4248" x2="26.8268" y2="28.7845" gradientUnits="userSpaceOnUse">
<stop offset="0.10243" stop-color="#28C2D1"/>
<stop offset="0.925347" stop-color="#4931DE"/>
</linearGradient>
</defs>
</svg>

<svg width="40" height="40" fill="none" xmlns="http://www.w3.org/2000/svg">
    <path
        d="M23.224 24.26a1 1 0 01.074 1.412l-2.054 2.334H25a1 1 0 01.78 1.622l-4.9 6a1 1 0 11-1.566-1.246l3.61-4.376H19a1 1 0 01-.744-1.668l3.554-4.004a1 1 0 011.414-.074zM22 12c4.93 0 7.726 3.148 8.132 6.948h.124c3.172 0 5.744 2.474 5.744 5.526C36 27.526 33.428 30 30.256 30h-2.42c.602-1.692-.462-3.626-2.296-3.948l-.254-.034a3 3 0 00-5.128-2.788L16.77 27a2.952 2.952 0 00-.6 3h-2.426C10.572 30 8 27.526 8 24.474c0-3.052 2.572-5.526 5.744-5.526h.124C14.278 15.122 17.07 12 22 12zm-5.216-6a7.542 7.542 0 016.706 4.09c-.494-.06-.992-.09-1.49-.09-4.78 0-8.264 2.614-9.508 6.572l-.124.428-.092.374-.33.06a7.468 7.468 0 00-5.432 4.516 5.244 5.244 0 012.4-9.712l.444-.01A7.54 7.54 0 0116.784 6z"
        fill="url(#prefix__paint0_linear)" />
    <defs>
        <linearGradient id="prefix__paint0_linear" x1="9.463" y1="11.425" x2="26.827" y2="28.785"
            gradientUnits="userSpaceOnUse">
            <stop offset=".102" stop-color="#28C2D1" />
            <stop offset=".925" stop-color="#4931DE" />
        </linearGradient>
    </defs>
</svg>
